packages/icons/web/vpay_large.svg

<svg width="24" height="24" viewBox="0 0 24 24" fill="none" xmlns="http://www.w3.org/2000/svg">
<path d="M3 2.00087H21.0692V22H3V2V2.00087Z" fill="#272756"/>
<path fill-rule="evenodd" clip-rule="evenodd" d="M3.45215 2.46265H20.6184V14.9883H3.45302V2.46265H3.45215Z" fill="#FAFBFC"/>
<path d="M16.3766 4.7356L13.0089 12.9493H10.8101L9.1519 6.39404C9.05108 5.99078 8.9633 5.84326 8.65826 5.67044C8.15592 5.39461 7.33203 5.1345 6.60547 4.97302L6.65414 4.7356H10.1931C10.6441 4.7356 11.05 5.04197 11.1534 5.5718L12.0286 10.3237L14.1926 4.7356H16.3775" fill="#272756"/>
<path d="M7.58887 16.4197C7.82265 16.3744 8.14682 16.3412 8.58832 16.3412C9.06632 16.3412 9.41743 16.4477 9.64513 16.6519C9.85806 16.8387 9.99711 17.1381 9.99711 17.496C9.99711 17.8582 9.89021 18.1576 9.68772 18.3627C9.42786 18.6394 9.01852 18.7695 8.55616 18.7695C8.43449 18.7695 8.32151 18.7634 8.23721 18.7468V20.1862H7.58887V16.4189V16.4197ZM8.23721 18.1978C8.31629 18.2213 8.42319 18.2275 8.55616 18.2275C9.04459 18.2275 9.34269 17.9708 9.34269 17.5239C9.34269 17.0997 9.06632 16.8728 8.61352 16.8728C8.43362 16.8728 8.30587 16.8902 8.23721 16.9068V18.1978ZM11.4311 19.1038L11.1234 20.1862H10.4482L11.5971 16.3682H12.4306L13.5951 20.1862H12.8929L12.5687 19.1038H11.4311ZM12.4566 18.5766L12.1759 17.6383C12.1064 17.4043 12.0482 17.1442 11.9934 16.9234H11.9847C11.9308 17.1442 11.8778 17.4113 11.8144 17.6383L11.538 18.5766H12.4575H12.4566ZM14.9718 20.1862V18.5932L13.8402 16.3674H14.5833L15.0144 17.3467C15.136 17.6304 15.2264 17.8443 15.3229 18.1061H15.3324C15.4237 17.8626 15.5254 17.6243 15.6462 17.3467L16.0773 16.3674H16.816L15.6253 18.5757V20.1853H14.9718V20.1862Z" fill="white"/>
</svg>

<svg width="24" height="24" fill="none" xmlns="http://www.w3.org/2000/svg">
    <path d="M3 2h18.07v20H3V2z" fill="#272756"/>
    <path fill-rule="evenodd" clip-rule="evenodd" d="M3.452 2.463h17.166v12.525H3.453V2.463z" fill="#FAFBFC"/>
    <path d="M16.377 4.736l-3.368 8.213H10.81L9.152 6.394c-.1-.403-.189-.55-.494-.724-.502-.275-1.326-.535-2.053-.697l.05-.237h3.538c.451 0 .857.306.96.836l.876 4.752 2.164-5.588h2.185" fill="#272756"/>
    <path d="M7.589 16.42a5.34 5.34 0 011-.079c.477 0 .828.107 1.056.31.213.188.352.487.352.845 0 .362-.107.662-.31.867-.26.276-.668.407-1.13.407-.123 0-.235-.007-.32-.023v1.44H7.59v-3.768zm.648 1.778c.08.023.186.03.32.03.488 0 .786-.257.786-.704 0-.424-.277-.651-.73-.651-.18 0-.307.017-.376.034v1.29zm3.194.906l-.308 1.082h-.675l1.15-3.818h.833l1.164 3.818h-.702l-.324-1.082H11.43zm1.026-.527l-.281-.939c-.07-.234-.128-.494-.183-.715h-.008c-.054.221-.107.488-.17.715l-.277.939h.92-.001zm2.515 1.61v-1.594l-1.132-2.226h.743l.431.98c.122.283.212.497.309.76h.01c.09-.244.192-.483.313-.76l.431-.98h.739l-1.19 2.209v1.61h-.654z" fill="#fff"/>
</svg>
